!!!!SEGMENT: Gsc2009-Caro_mea_vere_est_cibus.krn
!!!id: Gsc2009
!!!AGN: Motet
!!!voices: 4
!!!COM: Mathieu Gascongne
!!!OTL: Caro mea vere est cibus
**kern	**kern	**kern	**kern
*part4	*part3	*part2	*part1
*staff4	*staff3	*staff2	*staff1
*I"Bassus	*I"Tenor	*I"Altus	*I"Superius
*I'B	*I'T	*I'A	*I'S
*clefF4	*clefGv2	*clefG2	*clefG2
*k[b-]	*k[b-]	*k[b-]	*k[b-]
*F:	*F:	*F:	*F:
*M2/1	*M2/1	*M2/1	*M2/1
*met(C|)	*met(C|)	*met(C|)	*met(C|)
!!section: Prima pars: Caro mea vere est cibus
!!!OMD: Prima pars: Caro mea vere est cibus
0F	0F	0f	0cc
=1	=1	=1	=1
1F	1A	1f	1cc
1D	1A	1f	1dd
=2	=2	=2	=2
0C	0c	0g	0ee
=3	=3	=3	=3
1.F	1.c	1.a	1.ff
2F	2c	2a	2ee
=4	=4	=4	=4
0F	0f	0a	1dd
.	.	.	1cc
=5	=5	=5	=5
0G	0d	0g	0b-y
=6	=6	=6	=6
[0D	[0d	0f	0a
=7	=7	=7	=7
0D]	0d]	2r	1r
.	.	1f	.
.	.	.	1a
.	.	4e	.
.	.	4d	.
=8	=8	=8	=8
0r	0r	2e	1cc
.	.	2.f	.
.	.	.	1dd
.	.	4e	.
.	.	4f	.
.	.	4g	.
=9	=9	=9	=9
0r	0r	2a	2.ff
.	.	2.b-y	.
.	.	.	4ee
.	.	.	4dd
.	.	4a	4cc
.	.	4g	[2dd
.	.	4f	.
=10	=10	=10	=10
0r	0r	2g	4dd]
.	.	.	4cc
.	.	2e	1cc
.	.	1d	.
.	.	.	2bnXi
=11	=11	=11	=11
2r	1r	0c	0cc
1F	.	.	.
.	1A	.	.
4E	.	.	.
4D	.	.	.
=12	=12	=12	=12
2E	1c	0r	0r
2.F	.	.	.
.	1d	.	.
4E	.	.	.
4F	.	.	.
4G	.	.	.
=13	=13	=13	=13
2A	2.f	0r	0r
2.B-y	.	.	.
.	4e	.	.
.	4d	.	.
4A	4c	.	.
4G	[2d	.	.
4F	.	.	.
=14	=14	=14	=14
2G	4d]	0r	0r
.	4c	.	.
2E	1c	.	.
1D	.	.	.
.	2BnXi	.	.
=15	=15	=15	=15
1C	1c	1r	1r
[1F	[1c	[1f	[1a
=16	=16	=16	=16
1F]	1c]	1f]	1a]
1D	1d	1f	1a
=17	=17	=17	=17
2.G	1B-y	2d	2.b-y
.	.	1e	.
4F	.	.	4a
4E	2.c	.	4g
4D	.	.	4f
[2F	.	4d	[2a
.	4B-y	4c	.
=18	=18	=18	=18
2F]	4A	1d	2a]
.	4G	.	.
4E	1B-y	.	4g
4D	.	.	4f
2E	.	2G	2g
2F	4A	[2c	[2a
.	4G	.	.
=19	=19	=19	=19
1D	1F	2c]	2a]
.	.	2BnXi	4g
.	.	.	4f
1C	1G	1c	2e
.	.	.	[2cc
=20	=20	=20	=20
1.F	2.A	2r	4cc]
.	.	.	4b-y
.	.	2.c	4a
.	4B-y	.	4g
.	4c	.	2a
.	4A	4d	.
2E	2B-y	2e	[2g
=21	=21	=21	=21
2F	2A	2d	4g]
.	.	.	4f
2D	2F	2B-y	1f
1C	1G	1c	.
.	.	.	2e
=22	=22	=22	=22
0F	1F	0c	0f
.	1r	.	.
=23	=23	=23	=23
1r	0c	0r	0r
[1F	.	.	.
=24	=24	=24	=24
1F]	1d	0r	0r
1G	1B-y	.	.
=25	=25	=25	=25
1E	0c	0r	0r
[1F	.	.	.
=26	=26	=26	=26
2F]	1f	0r	0r
4E	.	.	.
4D	.	.	.
1C	1e	.	.
=27	=27	=27	=27
2.F	1d	0r	0r
4G	.	.	.
2A	2c	.	.
[2B-y	[2d	.	.
=28	=28	=28	=28
2B-]	2d]	0r	0r
4A	4c	.	.
4G	4B-y	.	.
2.F	2A	.	.
.	[2F	.	.
4G	.	.	.
=29	=29	=29	=29
4A	4F]	0r	0r
4B-y	4G	.	.
2c	4A	.	.
.	4B-y	.	.
2F	2c	.	.
[2c	[2F	.	.
=30	=30	=30	=30
2c]	2F]	0r	1r
4B-y	1f	.	.
4A	.	.	.
1G	.	.	1g
.	2e	.	.
=31	=31	=31	=31
0F	0f	1r	1a
.	.	1c	1cc
=32	=32	=32	=32
0r	0r	1d	2b-y
.	.	.	2.a
.	.	1f	.
.	.	.	4b-y
.	.	.	4cc
.	.	.	4dd
=33	=33	=33	=33
0r	0r	2e	2ee
.	.	2.d	1ff
.	.	4e	.
.	.	4f	4ee
.	.	4g	4dd
=34	=34	=34	=34
0r	0r	2a	2cc
.	.	1b-y	1dd
.	.	4a	4cc
.	.	4g	4b-y
=35	=35	=35	=35
0r	0r	2.f	2.a
.	.	4g	4b-y
.	.	2a	2cc
.	.	[2b-y	[2dd
=36	=36	=36	=36
2r	0r	4b-]	2dd]
.	.	4a	.
2F	.	1a	2cc
2G	.	.	1b-y
2E	.	2g	.
=37	=37	=37	=37
1F	2r	1a	1a
.	2f	.	.
1c	2g	1r	1r
.	2e	.	.
=38	=38	=38	=38
2A	1f	0r	0r
1B-y	.	.	.
.	1d	.	.
4A	.	.	.
4G	.	.	.
=39	=39	=39	=39
2A	2.c	0r	0r
2.c	.	.	.
.	4d	.	.
.	2e	.	.
4B-y	.	.	.
4A	2f	.	.
4G	.	.	.
=40	=40	=40	=40
2F	2f	0r	0r
2.A	4e	.	.
.	4d	.	.
.	2c	.	.
4G	.	.	.
4F	[2d	.	.
4E	.	.	.
=41	=41	=41	=41
2F	4d]	1r	2r
.	4c	.	.
2E	2c	.	2cc
1D	1f	2r	2dd
.	.	2f	2b-y
=42	=42	=42	=42
1C	2e	2g	1cc
.	1c	2e	.
1r	.	2.f	1a
.	2d	.	.
.	.	4e	.
=43	=43	=43	=43
1r	2B-y	2d	2g
.	1c	2c	1a
2r	.	1A	.
2F	4B-y	.	2cc
.	4A	.	.
=44	=44	=44	=44
2G	1G	2r	2b-y
2E	.	1c	4a
.	.	.	4g
1F	2F	.	2a
.	[2f	4B-y	[2cc
.	.	4A	.
=45	=45	=45	=45
1C	2f]	2.G	4cc]
.	.	.	4b-y
.	2e	.	4a
.	.	4A	4g
2D	2d	2B-y	2f
[2F	4c	2A	[2a
.	4B-y	.	.
=46	=46	=46	=46
2F]	2A	1d	4a]
.	.	.	4g
2BB-y	2B-y	.	1f
1C	1G	1c	.
.	.	.	2e
=47	=47	=47	=47
0F	0F	0c	0f
=48	=48	=48	=48
1r	1r	1r	1r
[1F	[1c	[1f	[1a
=49	=49	=49	=49
1F]	1c]	1f]	1a]
1F	1f	1a	1cc
=50	=50	=50	=50
1A	1e	1a	1cc
1B-y	1d	1f	1b-y
=51	=51	=51	=51
0F	0c	0f	1a
.	.	.	[1cc
=52	=52	=52	=52
1F	1r	1f	2cc]
.	.	.	2b-y
1F	1c	[1f	[1a
=53	=53	=53	=53
0B-y	1d	2f]	2a]
.	.	2e	4g
.	.	.	4f
.	1G	1d	1g
=54	=54	=54	=54
[0A	0c	0e	[0a
=55	=55	=55	=55
0A]	0r	2r	0a]
.	.	1e	.
.	.	2f	.
=56	=56	=56	=56
2r	0r	2d	0r
1A	.	2c	.
.	.	1f	.
2B-y	.	.	.
=57	=57	=57	=57
2G	0r	2e	0r
2F	.	1f	.
1B-y	.	.	.
.	.	4e	.
.	.	4d	.
=58	=58	=58	=58
2A	0r	2c	0r
1B-y	.	1d	.
4A	.	4c	.
4G	.	4B-y	.
=59	=59	=59	=59
2F	0r	2.A	1r
1A	.	.	.
.	.	4B-y	.
.	.	2c	2r
4G	.	[2d	2a
4F	.	.	.
=60	=60	=60	=60
1E	1r	2d]	2g
.	.	2c#i	2e
1D	2r	1d	2.f
.	2d	.	.
.	.	.	4g
=61	=61	=61	=61
0r	2c	0r	2a
.	2A	.	2f
.	2.B-y	.	1g
.	4c	.	.
=62	=62	=62	=62
0r	2d	0r	2.f
.	2B-y	.	.
.	.	.	4g
.	2.c	.	4a
.	.	.	4b-y
.	.	.	[2cc
.	4d	.	.
=63	=63	=63	=63
0r	2e	0r	4cc]
.	.	.	4b-y
.	2f	.	4a
.	.	.	4g
.	2d	.	4b-y
.	.	.	4cc
.	[2f	.	[2dd
=64	=64	=64	=64
2r	4f]	0r	4dd]
.	4e	.	4cc
2A	4d	.	1cc
.	4c	.	.
2G	1d	.	.
2B-y	.	.	2bnXi
=65	=65	=65	=65
2A	1c	0r	1cc
2F	.	.	.
1c	2r	.	1r
.	2e	.	.
=66	=66	=66	=66
2B-y	2d	0r	0r
2A	2f	.	.
2.c	2e	.	.
.	[2c	.	.
4B-y	.	.	.
=67	=67	=67	=67
2A	2c]	0r	2r
4G	1f	.	2a
4F	.	.	.
1G	.	.	2g
.	2e	.	2b-y
=68	=68	=68	=68
1F	2f	1r	2a
.	1c	.	2f
1r	.	2r	1cc
.	2A	2e	.
=69	=69	=69	=69
0r	2B-y	2d	2b-y
.	2d	2f	2a
.	1c	2e	2.cc
.	.	[2c	.
.	.	.	4b-y
=70	=70	=70	=70
0r	1F	2c]	2a
.	.	1f	4g
.	.	.	4f
.	1r	.	1g
.	.	2e	.
=71	=71	=71	=71
1r	1r	1f	1f
2r	2r	2r	2r
2F	2A	2f	2cc
=72	=72	=72	=72
2C	2G	2g	2cc
2G	2B-y	2g	2dd
1F	2A	1a	1ff
.	2F	.	.
=73	=73	=73	=73
2C	1c	2g	2ee
2E	.	2e	2cc
2D	2B-y	[1f	2dd
[2F	2A	.	4cc
.	.	.	4b-y
=74	=74	=74	=74
4F]	2.c	2f]	2a
4E	.	.	.
2C	.	2e	2.g
.	4B-y	.	.
1D	2A	2d	.
.	.	.	4f
.	4G	2B-y	[2f
.	4F	.	.
=75	=75	=75	=75
1C	1G	1c	2f]
.	.	.	2e
1F	1F	1c	1f
=76	=76	=76	=76
2r	2r	2r	2r
2F	2A	2f	2cc
2C	2G	2g	2cc
2G	2B-y	2g	2dd
=77	=77	=77	=77
1F	2A	1a	1ff
.	2F	.	.
2C	1c	2g	2ee
2E	.	2e	2cc
=78	=78	=78	=78
2D	2B-y	1.f	2dd
2.F	2A	.	4cc
.	.	.	4b-y
.	2.c	.	2a
4E	.	.	.
2C	.	2e	[2g
.	4B-y	.	.
=79	=79	=79	=79
1D	2A	2d	4g]
.	.	.	4f
.	4G	2B-y	1f
.	4F	.	.
1C	1G	1c	.
.	.	.	2e
=80	=80	=80	=80
00F	00F	00c	00f
=81||	=81||	=81||	=81||
*M2/1	*M2/1	*M2/1	*M2/1
*met(C|)	*met(C|)	*met(C|)	*met(C|)
!!section: Prima pars: Hic est panis
!!!OMD: Prima pars: Hic est panis
0F	0c	0f	0a
=82	=82	=82	=82
0F	0f	0a	0cc
=83	=83	=83	=83
0C	0e	0g	0cc
=84	=84	=84	=84
0F;	0c;	0f;	0a;
=85	=85	=85	=85
1r	1r	1r	1r
1F	1A	1f	1cc
=86	=86	=86	=86
1D	1A	1f	1dd
1G	1B-y	1g	1dd
=87	=87	=87	=87
2.F	1c	1.a	2.ff
4G	.	.	4ee
2A	2.f	.	2cc
[2B-y	.	2f	[2dd
.	4e	.	.
=88	=88	=88	=88
2B-]	4d	1.f	2dd]
.	4c	.	.
4A	1d	.	4cc
4G	.	.	4b-y
2F	.	.	2a
[2A	4c	4e	[2cc
.	4B-y	4d	.
=89	=89	=89	=89
2A]	4A	4c	2cc]
.	4F	4B-y	.
2B-y	1f	2d	4b-y
.	.	.	4a
1c	.	[1c	2g
.	2e	.	[2a
=90	=90	=90	=90
2F	2f	1c]	2a]
2.A	4e	.	4g
.	4d	.	4f
.	2c	2r	2e
4G	.	.	.
4F	[2A	2c	[2f
4E	.	.	.
=91	=91	=91	=91
1D	2A]	1d	2f]
.	2B-y	.	4e
.	.	.	4d
2C	1c	2G	2e
[2F	.	[2A	[2f
=92	=92	=92	=92
2F]	1F	2A]	4f]
.	.	.	4c
4E	.	2B-y	1f
4D	.	.	.
1C	1G	1c	.
.	.	.	2e
=93	=93	=93	=93
[0F	0F	[0c	[0f
=94	=94	=94	=94
0F]	1r	0c]	0f]
.	1F	.	.
=95	=95	=95	=95
1r	1.c	0r	0r
1C	.	.	.
.	2c	.	.
=96	=96	=96	=96
1.F	2c	0r	0r
.	2c	.	.
.	2d	.	.
2F	2c	.	.
=97	=97	=97	=97
2F	4A	0r	0r
.	4B-y	.	.
2F	4c	.	.
.	4A	.	.
2G	2B-y	.	.
2F	[2d	.	.
=98	=98	=98	=98
2D	2d]	0r	0r
1F	4c	.	.
.	4B-y	.	.
.	2A	.	.
4E	[2c	.	.
4D	.	.	.
=99	=99	=99	=99
2.C	2c]	0r	0r
.	4B-y	.	.
4D	4A	.	.
4E	2G	.	.
4F	.	.	.
[2G	[2B-y	.	.
=100	=100	=100	=100
4G]	4B-]	0r	0r
4F	4A	.	.
1F	4G	.	.
.	4F	.	.
.	1G	.	.
2E	.	.	.
=101	=101	=101	=101
0F	1F	0r	0r
.	2r	.	.
.	2c	.	.
=102	=102	=102	=102
2r	1d	0r	0r
2F	.	.	.
1G	1e	.	.
=103	=103	=103	=103
1A	1c	0r	0r
1F	2.f	.	.
.	4e	.	.
=104	=104	=104	=104
2.B-y	4d	0r	0r
.	4c	.	.
.	2d	.	.
4A	.	.	.
4G	2.B-y	.	.
4F	.	.	.
[2G	.	.	.
.	4c	.	.
=105	=105	=105	=105
2G]	4d	0r	0r
.	4e	.	.
4F	2.f	.	.
4E	.	.	.
2D	.	.	.
.	4e	.	.
[2F	4d	.	.
.	4c	.	.
=106	=106	=106	=106
4F]	2d	0r	0r
4E	.	.	.
4D	1c	.	.
4C	.	.	.
1D	.	.	.
.	2BnXi	.	.
=107	=107	=107	=107
1C	1c	1r	1r
[1F	[1c	[1a	[1ff
=108	=108	=108	=108
1F]	1c]	1a]	1ff]
1C	1c	1g	1ee
=109	=109	=109	=109
1.D	1.A	1.f	1.dd
2C	2c	2g	2ee
=110	=110	=110	=110
[0C	[0c	1.g	0ee
.	.	2e	.
=111	=111	=111	=111
0C]	1.c]	0e	2r
.	.	.	1cc
.	4B-y	.	2cc
.	4A	.	.
=112	=112	=112	=112
0r	4G	0r	1b-y
.	4F	.	.
.	2G	.	.
.	[1F	.	2a
.	.	.	[2cc
=113	=113	=113	=113
0r	1F]	2r	4cc]
.	.	.	4b-y
.	.	1f	4a
.	.	.	4g
.	1r	.	2f
.	.	2f	2a
=114	=114	=114	=114
0r	0r	1e	1g
.	.	2d	1f
.	.	[2f	.
=115	=115	=115	=115
0r	0r	4f]	2r
.	.	4e	.
.	.	4d	1ff
.	.	4c	.
.	.	2B-y	.
.	.	2d	2ff
=116	=116	=116	=116
0r	0r	4c	1ee
.	.	4d	.
.	.	4e	.
.	.	4f	.
.	.	2g	2dd
.	.	[2a	[2ff
=117	=117	=117	=117
0r	0r	4a]	4ff]
.	.	4g	4ee
.	.	4f	4dd
.	.	4e	4cc
.	.	2f	2.dd
.	.	[2g	.
.	.	.	4cc
=118	=118	=118	=118
0r	0r	4g]	2b-y
.	.	4f	.
.	.	1f	2a
.	.	.	1g
.	.	2e	.
=119	=119	=119	=119
0r	0r	1f	2f
.	.	.	2cc
.	.	1r	2dd
.	.	.	2ee
=120	=120	=120	=120
0r	0r	2r	2.cc
.	.	2f	.
.	.	.	4dd
.	.	2g	2ee
.	.	2a	[2ff
=121	=121	=121	=121
0r	0r	2.f	2ff]
.	.	.	4ee
.	.	4g	4dd
.	.	2a	2cc
.	.	[2b-y	[2dd
=122	=122	=122	=122
0r	0r	4b-]	4dd]
.	.	4a	4cc
.	.	4g	4b-y
.	.	4f	4a
.	.	2e	4g
.	.	.	4a
.	.	2d	4b-y
.	.	.	4cc
=123	=123	=123	=123
0r	0r	2f	4a
.	.	.	4g
.	.	2e	1cc
.	.	1d	.
.	.	.	2bnXi
=124	=124	=124	=124
0r	2r	2c	2cc
.	2c	2e	2a
.	2d	2f	2b-y
.	2e	2g	2cc
=125	=125	=125	=125
2r	2.c	2e	2a
2F	.	2a	2cc
.	4d	.	.
2G	2e	2g	2b-y
2A	[2f	[2c	[2a
=126	=126	=126	=126
2F	4f]	2c]	2a]
.	4e	.	.
2.B-y	4d	2d	2f
.	4c	.	.
.	2d	2B-y	2.b-y
4A	.	.	.
4G	[2B-y	[2e-X	.
4F	.	.	4a
=127	=127	=127	=127
2E	2B-]	2e-]	4g
.	.	.	4f
2F	2A	2d	1f
1C	1G	1c	.
.	.	.	2e
=128	=128	=128	=128
0r	2F	2r	2f
.	2c	2e	2a
.	2d	2f	2b-y
.	2e	2g	2cc
=129	=129	=129	=129
2r	2.c	2e	2a
2F	.	2a	2cc
.	4d	.	.
2G	2e	2g	2b-y
2A	[2f	[2c	[2a
=130	=130	=130	=130
2F	4f]	2c]	2a]
.	4e	.	.
2.B-y	4d	2d	2g
.	4c	.	.
.	2d	2B-y	2.b-y
4A	.	.	.
4G	[2B-y	[2e-i	.
4F	.	.	4a
=131	=131	=131	=131
2E	2B-]	2e-]	2g
2F	2A	2d	1f
1C	1G	1c	.
.	.	.	2e
=132	=132	=132	=132
1F	1F	1c	1f
1r	1r	1r	1r
=133	=133	=133	=133
0F	0c	0f	0a
=134	=134	=134	=134
1F	1c	1.f	1a
[1B-y	1d	.	[1f
.	.	2e	.
=135	=135	=135	=135
1B-]	0f	1d	2f]
.	.	.	2g
1A	.	[1c	1a
=136	=136	=136	=136
0G	1e	2c]	1.b-y
.	.	2B-y	.
.	[1d	1B-y	.
.	.	.	2cc
=137	=137	=137	=137
1F	2d]	1A	1dd
.	2c	.	.
1E	[1c	1G	1ee
=138	=138	=138	=138
0D	2c]	0d	1.ff
.	4BnXi	.	.
.	4A	.	.
.	1Bni	.	.
.	.	.	4ee
.	.	.	4dd
=139	=139	=139	=139
[0C	0c	[0g	[0ee
=140	=140	=140	=140
0C]	1r	0g]	0ee]
.	1G	.	.
=141	=141	=141	=141
1r	2.A	0r	0r
.	4B-y	.	.
1F	1c	.	.
=142	=142	=142	=142
2.A	2.F	0r	0r
4B-y	4G	.	.
1c	4A	.	.
.	4B-y	.	.
.	[2c	.	.
=143	=143	=143	=143
2F	4c]	0r	0r
.	4d	.	.
2.c	4e	.	.
.	4f	.	.
.	2e	.	.
4B-y	.	.	.
[2A	[2c	.	.
=144	=144	=144	=144
2A]	2c]	0r	0r
4G	1f	.	.
4F	.	.	.
1G	.	.	.
.	2e	.	.
=145	=145	=145	=145
0F	0f	1r	1cc
.	.	1f	2cc
.	.	.	2cc
=146	=146	=146	=146
0r	0r	2f	2a
.	.	2f	2a
.	.	2d	2.b-y
.	.	2d	.
.	.	.	4a
=147	=147	=147	=147
1r	1c	2.e	1g
.	.	4d	.
1F	2c	1c	1r
.	2c	.	.
=148	=148	=148	=148
2F	2A	0r	0r
2F	2A	.	.
2D	2.B-y	.	.
2D	.	.	.
.	4A	.	.
=149	=149	=149	=149
2.E	1G	0r	0r
4D	.	.	.
1C	2r	.	.
.	2c	.	.
=150	=150	=150	=150
2r	1c	2r	2r
2F	.	2f	2cc
1F	1c	1a	1ff
=151	=151	=151	=151
1C	2r	1g	1ee
.	2c	.	.
2r	1c	2r	2r
2F	.	2f	2cc
=152	=152	=152	=152
1F	1c	1a	1ff
1C	2r	1g	1ee
.	2c	.	.
=153	=153	=153	=153
1r	1c	2r	2r
.	.	2e	2cc
2r	1F	1f	1cc
[2c	.	.	.
=154	=154	=154	=154
2c]	2r	1e	1g
4B-y	2c	.	.
4A	.	.	.
2G	2B-y	1r	1r
[2F	[2A	.	.
=155	=155	=155	=155
2F]	2A]	0r	0r
4E	4G	.	.
4D	4F	.	.
2C	4A	.	.
.	4G	.	.
2E	[2c	.	.
=156	=156	=156	=156
1D	2c]	1r	0r
.	2BnXi	.	.
[1C	[1c	2r	.
.	.	[2g	.
=157	=157	=157	=157
1C]	1c]	2g]	2r
.	.	4f	2cc
.	.	4e	.
1r	1r	2d	2b-y
.	.	[2f	[2a
=158	=158	=158	=158
0r	0r	2f]	2a]
.	.	4e	4g
.	.	4d	4f
.	.	2c	4a
.	.	.	4g
.	.	2e	[2cc
=159	=159	=159	=159
1r	1r	1d	2cc]
.	.	.	2b-y
2r	2r	2c	2cc
2F	2c	2f	2a
=160	=160	=160	=160
1F	1f	1a	1cc
1C	1e	1g	1cc
=161	=161	=161	=161
2.F	2r	2f	2a
.	1f	4e	2.cc
4G	.	4d	.
2A	.	2c	.
.	.	.	4b-y
[2F	4e	[2f	4a
.	4d	.	4g
=162	=162	=162	=162
2F]	2c	4f]	2a
.	.	4e	.
2G	1B-y	1d	2g
2D	.	.	2f
[2F	4A	4c	[2a
.	4G	4B-y	.
=163	=163	=163	=163
4F]	2F	2.A	4a]
4E	.	.	4g
2F	2A	.	1f
.	.	4B-y	.
1C	1G	1c	.
.	.	.	2e
=164	=164	=164	=164
1F	1F	1c	1f
2r	2r	2r	2r
2F	2c	2f	2a
=165	=165	=165	=165
1F	1f	1a	1cc
1C	1e	1g	1cc
=166	=166	=166	=166
2.F	2r	2f	2a
.	1f	4e	2.cc
4G	.	4d	.
2A	.	2c	.
.	.	.	4b-y
[2F	4e	[2f	4a
.	4d	.	4g
=167	=167	=167	=167
2F]	2c	4f]	2a
.	.	4e	.
2G	1B-y	1d	2g
2D	.	.	2f
[2F	4A	4c	[2a
.	4G	4B-y	.
=168	=168	=168	=168
4F]	2F	2.A	4a]
4E	.	.	4g
2F	2A	.	1f
.	.	4B-y	.
1C	1G	1c	.
.	.	.	2e
=169	=169	=169	=169
00Fl	00Fl	00cl	00fl
==	==	==	==
*-	*-	*-	*-
!!!system-decoration: [*]
!!!RDF**kern: i = editorial accidental
!!!RDF**kern: l = terminal long
!!!ENC: Benjamin Ory
!!!END: 2024/5/23
!!!EED: Benjamin Ory
!!!EEV: 2024/05/23
!!!YEC: Copyright 2024 Benjamin Ory, All Rights Reserved
!!!ONB: Translated from MusicXML on 2024/05/23